src/assets/icons/logo3.svg

<svg height="216" viewBox="0 0 206 216" width="206" xmlns="http://www.w3.org/2000/svg" xmlns:xlink="http://www.w3.org/1999/xlink"><linearGradient id="a" x1="-.000205%" x2="99.999902%" y1="49.999809%" y2="49.999809%"><stop offset="0" stop-color="#91774f"/><stop offset="1" stop-color="#f2cc80"/></linearGradient><mask id="b" fill="#fff"><path d="m49.023 0v187.214h39.551c24.688 0 45.537-19.545 45.801-44.232.191-17.837-9.961-33.607-25.731-40.874 11.031-7.585 17.655-19.936 17.653-33.476-.005-22.264-19.256-40.469-41.521-40.469h-24.42v-16.829h79.058c22.963 0 42.549 17.813 43.424 40.758.923 24.126-18.452 44.062-42.378 44.062h-1.648v11.335h5.856c27.024 0 49.843 22.112 49.376 49.133-.451 26.243-21.929 47.442-48.259 47.442h-134.451v-164.545h29.634v-11.356h-40.968v187.236h144.52c31.776 0 58.91-24.363 60.763-56.081 1.536-26.278-14.138-49.829-37.941-58.953 16.69-9.785 27.069-27.657 26.86-47.203-.32-29.643-25.242-53.162-54.887-53.162zm11.333 39.519h25.466c16.061 0 29.122 13.057 29.122 29.12 0 16.064-13.061 29.142-29.122 29.142h-6.84v11.335h10.688c18.401 0 33.372 14.971 33.372 33.373 0 18.418-14.971 33.391-33.372 33.391h-29.314z" fill="#fff" fill-rule="evenodd"/></mask><path d="m49.023 0v187.214h39.551c24.688 0 45.537-19.545 45.801-44.232.191-17.837-9.961-33.607-25.731-40.874 11.031-7.585 17.655-19.936 17.653-33.476-.005-22.264-19.256-40.469-41.521-40.469h-24.42v-16.829h79.058c22.963 0 42.549 17.813 43.424 40.758.923 24.126-18.452 44.062-42.378 44.062h-1.648v11.335h5.856c27.024 0 49.843 22.112 49.376 49.133-.451 26.243-21.929 47.442-48.259 47.442h-134.451v-164.545h29.634v-11.356h-40.968v187.236h144.52c31.776 0 58.91-24.363 60.763-56.081 1.536-26.278-14.138-49.829-37.941-58.953 16.69-9.785 27.069-27.657 26.86-47.203-.32-29.643-25.242-53.162-54.887-53.162zm11.333 39.519h25.466c16.061 0 29.122 13.057 29.122 29.12 0 16.064-13.061 29.142-29.122 29.142h-6.84v11.335h10.688c18.401 0 33.372 14.971 33.372 33.373 0 18.418-14.971 33.391-33.372 33.391h-29.314z" fill="url(#a)" fill-rule="evenodd" mask="url(#b)" transform="translate(.307 .43)"/></svg>

<?xml version="1.0" encoding="UTF-8"?>
<svg width="206px" height="216px" viewBox="0 0 206 216" version="1.1" xmlns="http://www.w3.org/2000/svg" xmlns:xlink="http://www.w3.org/1999/xlink">
    <title>Group 26</title>
    <defs>
        <path d="M49.023,0 L49.023,187.214 L88.574,187.214 C113.262,187.214 134.111,167.669 134.375,142.982 L134.375,142.982 C134.566,125.145 124.414,109.375 108.644,102.108 L108.644,102.108 C119.675,94.523 126.299,82.172 126.297,68.632 L126.297,68.632 C126.292,46.368 107.041,28.163 84.776,28.163 L84.776,28.163 L60.356,28.163 L60.356,11.334 L139.414,11.334 C162.377,11.334 181.963,29.147 182.838,52.092 L182.838,52.092 C183.761,76.218 164.386,96.154 140.46,96.154 L140.46,96.154 L138.812,96.154 L138.812,107.489 L144.668,107.489 C171.692,107.489 194.511,129.601 194.044,156.622 L194.044,156.622 C193.593,182.865 172.115,204.064 145.785,204.064 L145.785,204.064 L11.334,204.064 L11.334,39.519 L40.968,39.519 L40.968,28.163 L0,28.163 L0,215.399 L144.52,215.399 C176.296,215.399 203.43,191.036 205.283,159.318 L205.283,159.318 C206.819,133.04 191.145,109.489 167.342,100.365 L167.342,100.365 C184.032,90.58 194.411,72.708 194.202,53.162 L194.202,53.162 C193.882,23.519 168.96,0 139.315,0 L139.315,0 L49.023,0 Z M60.356,39.519 L85.822,39.519 C101.883,39.519 114.944,52.576 114.944,68.639 L114.944,68.639 C114.944,84.703 101.883,97.781 85.822,97.781 L85.822,97.781 L78.982,97.781 L78.982,109.116 L89.67,109.116 C108.071,109.116 123.042,124.087 123.042,142.489 L123.042,142.489 C123.042,160.907 108.071,175.88 89.67,175.88 L89.67,175.88 L60.356,175.88 L60.356,39.519 Z" id="path-1"></path>
        <linearGradient x1="-0.000204687123%" y1="49.9998094%" x2="99.9999015%" y2="49.9998094%" id="linearGradient-3">
            <stop stop-color="#91774F" offset="0%"></stop>
            <stop stop-color="#F2CC80" offset="100%"></stop>
        </linearGradient>
    </defs>
    <g id="La-Nina" stroke="none" stroke-width="1" fill="none" fill-rule="evenodd">
        <g id="Group-26" transform="translate(0.307000, 0.430000)">
            <mask id="mask-2" fill="white">
                <use xlink:href="#path-1"></use>
            </mask>
            <g id="Clip-25"></g>
            <path d="M49.023,0 L49.023,187.214 L88.574,187.214 C113.262,187.214 134.111,167.669 134.375,142.982 L134.375,142.982 C134.566,125.145 124.414,109.375 108.644,102.108 L108.644,102.108 C119.675,94.523 126.299,82.172 126.297,68.632 L126.297,68.632 C126.292,46.368 107.041,28.163 84.776,28.163 L84.776,28.163 L60.356,28.163 L60.356,11.334 L139.414,11.334 C162.377,11.334 181.963,29.147 182.838,52.092 L182.838,52.092 C183.761,76.218 164.386,96.154 140.46,96.154 L140.46,96.154 L138.812,96.154 L138.812,107.489 L144.668,107.489 C171.692,107.489 194.511,129.601 194.044,156.622 L194.044,156.622 C193.593,182.865 172.115,204.064 145.785,204.064 L145.785,204.064 L11.334,204.064 L11.334,39.519 L40.968,39.519 L40.968,28.163 L0,28.163 L0,215.399 L144.52,215.399 C176.296,215.399 203.43,191.036 205.283,159.318 L205.283,159.318 C206.819,133.04 191.145,109.489 167.342,100.365 L167.342,100.365 C184.032,90.58 194.411,72.708 194.202,53.162 L194.202,53.162 C193.882,23.519 168.96,0 139.315,0 L139.315,0 L49.023,0 Z M60.356,39.519 L85.822,39.519 C101.883,39.519 114.944,52.576 114.944,68.639 L114.944,68.639 C114.944,84.703 101.883,97.781 85.822,97.781 L85.822,97.781 L78.982,97.781 L78.982,109.116 L89.67,109.116 C108.071,109.116 123.042,124.087 123.042,142.489 L123.042,142.489 C123.042,160.907 108.071,175.88 89.67,175.88 L89.67,175.88 L60.356,175.88 L60.356,39.519 Z" id="Fill-24" fill="url(#linearGradient-3)" mask="url(#mask-2)"></path>
        </g>
    </g>
</svg>
